X: 55
T:May Day In The Morning. JaW.055
M:C|
Q:1/4=180
S:James Winder Ms, Lancashire, 1835-41
R:Reel
O:England
A:Wyresdale,Lancashire
H:1/8
Z:vmp.Chris Partington, Aug 2004
K:D
DFED EGFd|DFED CEA,C|DFED EFGE|Ddc(B/c/) d2d2:|!
|:(d/e/f/g/) af afed|(B/c/d/e/) ec ecBA|\
(d/e/f/g/) af afed|ceA(B/c/) d2d2:|]
